X: 12
T:Shuter's Hornpipe (#317)
M:4/4
L:1/8
S:Wilson's Companion to the Ballroom 1816
R:Hornpipe
K:G
G2 G2 GABc|dcBA GABG|A2 A2 A2 ed|cBAG FAFD|
G2 G2 GABc|dcBA G2 g2|fafd ege^c|d2 d2 d2 z2:|
|:A2 A2 A2 B=c|dBAG FAFD|d2 d2 d2 ef|gedc BdBG|
e2 c2 c2 ge|d2 B2 B2 g2|ecec BAGF|G2 G2 G2 z2:||

